X:1
T:Claude Goudimel Cent Cinquante Pseaulmes,... nouvellement 1580
T:Psal. XCVI.
T:Cantate Domino.
%%score [ 1 2 3 4 ]
L:1/8
Q:1/4=120
M:none
K:C
V:1 treble nm="superius"
V:2 treble-8 nm="contra"
V:3 treble-8 nm="tenor"
V:4 bass nm="bassus"
V:1
 d8 d4 d4 | c8 A8 | c4 d4 B8 | A8 z8 | A8 d4 d4 | c8 A8 | G4 F4 E8 | D8 z8 | F8 E4 F4 | G8 A8 | %10
w: Chan- tez à|Dieu chan-|son nou- vel-|le,|Chan- tez ó|ter- re~u-|ni- ver- sel-|le.|Chan- tez, et|son nom|
 F4 G4 A8 | z8 E8 | F4 G4 A4 E4 | G8 F8 | E8 z8 | A8 G4 A4 | D4 E4 F4 G4 x4 | E8 D8 |] %18
w: be- nis- sez,|Et|de jour en jour|an- non-|cez|Sa de- li-|vran- ce so- len-|nel- le.|
V:2
 z4 d4 f4 f4 | e8 f8 | e4 f4 d2 c2 d2 e2 | f8 F4 A4 | A2 G2 F2 E2 D4 d4 | f4 e4 f8 | e4 d6 ^cB c4 | %7
w: Chan- tez à|Dieu chan-|son nou- vel- * * *|* le, Chan-|tez * * * * ó|ter- re~u- ni-|ver- sel- * * *|
w: |||||||
 d8 z4 A4 | A2 G2 A2 B2 ^c4 d4 | e8 A4 A4- | A4 e4 c4 A4 | c4 c4 G4 E4 | D4 E4 A4 z2 c2 | %13
w: le. Chan-|tez, * * * * et|son nom be-|* nis- sez, et|de jour en jour|an- non- cez Et|
w: ||||||
 d4 e4 c4 d4 | c4 c4 B4 c4 | c4 c4 B4 A4 | f4 e6 d2 d8 | ^c4 d8 x4 |] %18
w: |* * * Sa|de- li- vran- ce|so- len- * nel-|* le|
w: de jour en jour|an- non- cez *||||
V:3
 z4 D4 D2 E2 F2 G2 | A2 B2 c2 A2 d4 d4 | A4 A4 B2 A2 B2 c2 | d4 c4 f8 | e4 A4 G4 G4 | %5
w: Chan- tez * * *|* * * * * à|Dieu chan- son * * *|* nou- vel-|le, chan- tez ó|
 A4 A4 F2 G2 A2 B2 | c4 d4 A8 | D4 A4 A2 G2 F2 E2 | D2 E2 F2 G2 A4 A4 | c8 c8 | d4 B4 A8 | %11
w: ter- re~u- ni- * * *|* ver- sel-|le, chan- tez, * * *|* * * * * et|son nom|be- nis- sez,|
 z4 A4 B4 c4 | d4 B4 c8 | B8 A8 | z4 A4 ^G4 A4 | E4 e4 e2 d2 c2 B2 | A12 _B4 x4 | A8 A8 |] %18
w: et de jour|en jour an-|non- cez|Sa de- li-|vran- ce so- * * *|* len-|nel- e|
V:4
 z16 | z16 | z4 D,4 G,4 G,4 | F,8 D,8 | ^C,4 D,4 B,,8 | A,,8 z8 | z8 z4 A,4 | %7
w: ||Chan- tez, ó|ter- re~u-|ni- ver- sel-|le|Chan-|
w: |||||||
 A,2 G,2 F,2 E,2 D,4 D,4 | F,4 D,4 A,,4 D,4 | C,4 C,4 F,4 F,4 | D,4 E,4 F,2 E,2 F,2 G,2 | %11
w: tez * * * * et|son nom be- nis-|sez, chan- * *||
w: ||* * tez et|son nom be- * * *|
 A,4 F,4 E,8 | z8 z4 A,4 | G,4 E,4 F,4 D,4 | A,,4 A,,4 E,4 A,,4 | A,,2 B,,2 C,2 D,2 E,4 A,,4 | %16
w: |Et|de jour en jour|an- non- cez sa|de- * * * * li-|
w: * nis- sez|||||
 D,4 ^C,4 D,4 G,,4 x4 | A,,8 D,8 |] %18
w: vran- ce so- len-|nel- le.|
w: ||

